!!!!SEGMENT: pl-sa--400-a-viii-40--005-003_pugnani-gaetano--trio-in-a-allegro.krn
!!!cenid: 17xx:2034
!!!COM: Pugnani, Gaetano
!!!COM-rismID:
!!!CDT: 1731/11/27-1798/07/15
!!!CNT: Italian
!!!OPR: Trio in A
!!!OTL: Allegro
!!!OMV: 003
!!!PDT:
!!!AGN: Secular
!!!SMS-siglum: PL-SA
!!!SMS-shelfmark: 400/A VIII 40
!!!SMS-shelfwork: 005-003 M
!!!SMS-variant:
!!!SMS-altvar:
!!!NIFC-rismSourceID: 1001104668
!!!NIFC-islandoraID:
!!!URL-pdf-islandora:
!!!URL-scan: https://bc.bdsandomierz.pl/dlibra/publication/1703/edition/1671/content @EN{Scan on Cyfrowa Biblioteka Diecezjalna w Sandomierzu} @PL{Skany w portalu Cyfrowa Biblioteka Diecezjalna w Sandomierzu}
!!!ONB-nifc: UWAGA: No 5to. Części: 1. bez podanego tempa, 2. Adagio, 3. Allegro
!!!AIN: 1 empty 2 violn
!!!key:
**kern	**kern	**kern
*part3	*part2	*part1
*staff3	*staff2	*staff1
*Iempty	*Ivioln	*Ivioln
*I"Baſso	*I"Violino 2do	*I"Violino 1mo
*I'b	*I'vl 2	*I'vl 1
*clefF4	*clefG2	*clefG2
*k[]	*k[f#c#g#]	*k[f#c#g#]
*A:	*A:	*A:
*	*M3/8	*M3/8
=1	=1	=1
!LO:TX:t=P:problem=zgodnie z RISM "b part missing."	!LO:TX:a:t=Allo	!LO:TX:a:t=Allo
4.ryy	16r	8aa'\L
.	16a/LL	.
.	16cc#/	(8ee\
.	16a/	.
.	16b/	8dd\J)
.	16e/JJ	.
=2	=2	=2
.	.	8qqdd/
4.ryy	4a/	8.cc#\L
.	.	(16ee\L
.	8r	16aa\
.	.	16ccc#\JJ)
=3	=3	=3
!	!LO:TX:t=P:problem=mixed beam	!
4.ryy	8dd\L	16bb\LL
.	.	16ddd\JJ
.	.	8qqbb/
.	8ee\	4gg#m\
.	8e/J	.
=4	=4	=4
4.ryy	4a/	16aa\LL
.	.	16ee\
.	.	(16dd\
.	.	16cc#\
.	8r	16b\
.	.	16a\JJ)
=5	=5	=5
4.ryy	16r	8aa'\L
.	16a/LL	.
.	16cc#/	(8ee\
.	16a/	.
.	16b/	8dd\J)
.	16e/JJ	.
=6	=6	=6
.	.	8qqdd/
4.ryy	16a/LL	8cc#\L
.	16a/	.
.	16cc#/	8ee\
.	16b/	.
.	16cc#/	8ee\J
.	16a/JJ	.
=7	=7	=7
!	!	!LO:N:vis=4
4.ryy	(16dd/LL	8ff#\
.	16cc#/	.
.	16dd/)	8r
.	16a'/	.
.	16f#'/	16.aa\LL
.	16d'/JJ	.
.	.	32ff#\JJk
=8	=8	=8
4.ryy	16a/LL	8ee\
.	16A/	.
.	16c#/	16r
.	16e/	16e/
!	!	!LO:N:vis=4
.	16c#/	8e/
.	16A/JJ	.
=9	=9	=9
4.ryy	8d/L	16f#/LL
.	.	16dd/
.	8e/	16cc#/
.	.	16a/
.	8e/J	16b/
.	.	16g#/JJ
=10	=10	=10
4.ryy	8aa\L	16a/LL
.	.	16a/
.	8ee\	16cc#/
.	.	16a/
.	8dd\J	16b/
.	.	16e/JJ
=11	=11	=11
.	8qcc#/	.
4.ryy	8.cc#\L	4a/
.	(16ee\L	.
.	16aa\	8r
.	16ccc#\JJ)	.
!	!	!LO:LB:g=original
=12	=12	=12
!	!	!LO:TX:t=P:problem=mixed beam
4.ryy	16bb\LL	8dd\L
.	16ddd\JJ	.
.	8qqaa/	.
.	4gg#\	8ee\
.	.	8e/J
=13	=13	=13
4.ryy	16aa\LL	4a/
.	16ee\	.
.	16dd\	.
.	16cc#\	.
.	8qqcc#/	.
.	16b\	8r
.	16a\JJ	.
=14	=14	=14
4.ryy	8aa\L	16r
.	.	16a/LL
.	8ee\	16cc#/
.	.	16a/
.	8dd\J	16b/
.	.	16e/JJ
=15	=15	=15
.	8qqdd/	.
4.ryy	8.cc#\L	16a'\LL
.	.	(16a\
.	.	16cc#\
.	16ee\Jk	16a\
!	!LO:N:vis=4	!
.	8eeM\	(16cc#\)
.	.	16a\JJ)
=16	=16	=16
!	!LO:N:vis=4	!
4.ryy	8ff#\	16dd'/LL
.	.	16cc#/
.	8r	(16dd/
.	.	16a/
.	16.aa\LL	16f#/)
.	.	16d/JJ
.	32ff#\JJk	.
=17	=17	=17
!	!LO:TX:t=P:problem=mixed beam	!
4.ryy	8ee\L	(16a/LL
.	.	16A/)
.	16r	16c#/
.	16e/Jk	16e'/
.	8eM/	16c#'/
.	.	16A'/JJ
!	!LO:LB:g=original	!
=18	=18	=18
4.ryy	16f#\LL	8d/L
.	16dd\	.
.	16cc#\	8e/
.	16a\	.
.	16b\	8e/J
.	16g#\JJ	.
=19	=19	=19
4.ryy	4a/	4A/
.	8r	8r
=20	=20	=20
4.ryy	8a\L	4cc#\
.	8a\	.
*	*	*Xtuplet
!	!	!LO:TX:t=P:problem=moim zdaniem są to łuki nie klamry łukowe M.J. To zostawiam. M.Ch.
.	8a\J	(24a\LL
.	.	24b\
.	.	24cc#\JJ)
=21	=21	=21
.	.	8qqcc#/
4.ryy	8r	4b\
.	8g#/L	.
.	8e/J	(24g#/LL
.	.	24a/
.	.	24b/JJ)
=22	=22	=22
.	.	8qqb/
4.ryy	8f#/L	8.a/L
.	8d#X/	.
.	.	16f#/Jk
.	8B/J	(24f#/LL
.	.	24g#/
.	.	24a/JJ)
!	!	!LO:LB:g=original
=23	=23	=23
.	.	8qqa/
4.ryy	4e/	4.g#/
.	8r	.
=24	=24	=24
4.ryy	4cc#\	8a/L
.	.	8a/
*	*Xtuplet	*
.	(24a\LL	8a/J
.	24b\	.
.	24cc#\JJ)	.
=25	=25	=25
.	8qqcc#/	.
4.ryy	4b\	8r
.	.	8g#/L
.	24g#/LL	8e/J
.	24a/	.
.	24b/JJ	.
=26	=26	=26
4.ryy	8.a/L	8f#/L
.	.	8d#X/
.	16f#/Jk	.
.	(24f#/LL	8B/J
.	24g#/	.
.	24a/JJ)	.
=27	=27	=27
!	!	!LO:TX:t=P:problem=mixed beam
4.ryy	8g#/L	8.e/L
.	8g#/	.
.	.	16ee\Jk
.	8g#/J	(>24ee\LL
.	.	24ff#\
.	.	24gg#\JJ)
=28	=28	=28
.	.	8qgg#/
4.ryy	8d#X/L	8ff#\L
.	8d#/	16r
.	.	16ff#\Jk
.	8d#/J	(24ff#\LL
.	.	24gg#\
.	.	24aa\JJ)
=29	=29	=29
.	.	8qqaa/
4.ryy	16.e/LL	4.gg#\
.	32d#X/K	.
.	16.e/	.
.	32f#/K	.
.	16.g#/	.
.	32a#X/JJk	.
=30	=30	=30
4.ryy	16.b\LL	16.ff#\LL
.	32dd#X\JJk	32ff#\JJk
.	(24ee\LL	(24ff#\LL
.	24ff#\	24gg#\
.	24gg#\JJ)	24aa\JJ)
.	(24dd#\LL	(24ff#\LL
.	24ee\	24gg#\
.	24ff#\JJ)	24aa\JJ)
=31	=31	=31
!	!LO:TX:t=P:problem=mixed beam	!
.	.	8qqaa/
4.ryy	16.ee\LL	4.gg#\
.	32e/K	.
.	16.e/	.
.	32f#/K	.
.	16.g#/	.
.	32a#X/JJk	.
=32	=32	=32
*	*	*^
4.ryy	8b/L	4ff#/	4b\
.	16.b/L	.	.
.	32a/K	.	.
.	16.g#/	8r	8ryy
.	32f#/JJk	.	.
*	*	*v	*v
=33	=33	=33
4.ryy	16.e#X/LL	8e#X/L 8cc# 8gg#
.	32cc#/JJk	.
.	16.ee#X\LL	8ccc#/J
.	32cc#\JJk	.
.	16.gg#\LL	16r
.	.	16gg#\
.	32ee#\JJk	.
=34	=34	=34
4.ryy	(24ff#\LL	24aa\LL
.	24gg#\	24bb\
.	24aa\JJ)	24ccc#\JJ
.	8aa\L	8ccc#\L
.	8qqaa/	8qqbb/
.	16.gg#\L	16.aa\L
.	32ff#\JJk	32gg#\JJk
!	!	!LO:LB:g=original
=35	=35	=35
4.ryy	16.ee#X\LL	(8gg#\L
.	32cc#\JJk	.
!	!LO:LB:g=original	!
=-	=-	=-
.	16.ee#\LL	8ccc#\J)
.	32cc#\JJk	.
.	16.gg#\LL	16r
.	.	16gg#\
.	32ee#X\JJk	.
=36	=36	=36
4.ryy	24ff#\LL	24aa\LL
.	24gg#\	24bb\
.	24aa\JJ	24ccc#\JJ
*	*	*tuplet
!	!	!LO:TUP:a
.	8a\L	24ccc#\LL
.	.	24bb\
.	.	24aa\
.	8a#X\J	24gg#\
.	.	24ff#\
.	.	24ee\JJ
=37	=37	=37
4.ryy	16.b\LL	8dd#X\L
.	32b\JJk	.
.	16.dd#X\LL	8bb\J
.	32b\JJk	.
.	16.ff#\LL	8r
.	32dd#\JJk	.
=38	=38	=38
*	*	*Xtuplet
4.ryy	24ee\LL	(>24gg#\LL
.	24ff#\	24aa\
.	24gg#\JJ	24bb\JJ)
.	8gg#\L	(8.bb\L
.	16.ff#\L	.
.	.	32aa\LL
.	32ee\JJk	32gg#\JJJ)
=39	=39	=39
4.ryy	16.dd#X\LL	8ff#\L
.	32b\JJk	.
.	16.dd#\LL	8bb\J
.	32b\JJk	.
.	16.ff#\LL	16r
.	.	16ff#\
.	32dd#\JJk	.
=40	=40	=40
4.ryy	24ee\LL	(24gg#\LL
.	24ff#\	24aa\
.	24gg#\JJ	24bb\JJ)
*	*	*tuplet
!	!	!LO:TUP:a
.	8g#/L	24bb\LL
.	.	24aa\
.	.	24gg#\
.	8g#/J	24ff#\
.	.	24ee\
.	.	24ddn\JJ
=41	=41	=41
4.ryy	16.a\LL	8cc#\L
.	32a\JJk	.
.	16.cc#\LL	8aa\J
.	32a\JJk	.
.	16.ee\LL	16r
.	.	16ee\
.	32cc#\JJk	.
=42	=42	=42
!	!LO:TX:t=P:problem=mixed beam	!
4.ryy	8dd\L	8ff#\L
.	8d/	8ee\
!	!	!LO:N:vis=8.
.	8dd\J	(16.ff#\L
!	!	!LO:N:vis=16
.	.	32dd\JJk)
=43	=43	=43
4.ryy	8cc#\L	8ee\L
.	8a\J	8cc#\
!	!	!LO:N:vis=8.
.	16.cc#\LL	(16.ee\L
!	!	!LO:N:vis=16
.	32a\JJk	32cc#\JJk)
=44	=44	=44
*	*	*^
4.ryy	16.g#/LL	16.b/LL	8e\L
.	32b/K	32dd/K	.
!	!LO:N:vis=16	!	!
.	16.a/	16.cc#/	8f#\
.	32cc#/K	32ee/K	.
.	16.b/	16.dd/	8f#\J
.	32a/JJk	32cc#/JJk	.
!	!	!LO:LB:g=original	!LO:LB:g=original
=45	=45	=45	=45
4.ryy	16.g#/LL	16.cc#/LL	8e\L
.	32b/K	32dd/K	.
!	!LO:N:vis=16	!	!
.	16.a/	16.cc#/	8e\
.	32cc#/K	32ee/K	.
.	16.b/	16.dd/	8f#\J
.	32a/JJk	32cc#/JJk	.
=46	=46	=46	=46
.	.	8qqcc#/	.
4.ryy	8g#/L	4b/	4e\
.	16e/L	.	.
.	16d/	.	.
.	16cn/	8r	8ryy
.	16B/JJ	.	.
*	*	*v	*v
=47	=47	=47
*	*ok[fngncn]	*ok[fngncn]
*	*k[]	*k[]
!	!	!LO:TX:a:i:t=Dolce
!	!LO:TX:a:t=Dlce	!
4.ryy	4A/	8a\L
.	.	(8cc\
.	8r	8b\J)
=48	=48	=48
4.ryy	(8a\L	(8cc\L
.	8cc\)	8ee\)
.	8b|>\J	8dd|>\J
!	!LO:LB:g=original	!
=49	=49	=49
4.ryy	4cc\	8ee|>\L
.	.	(8aa\
.	8cc#X\	8gg\J)
=50	=50	=50
.	.	8qqgg/
4.ryy	(8dd\L	4ff\
.	8b\)	.
.	8ccn\J	8ee\
=51	=51	=51
!	!	!LO:TX:t=P:problem=mixed beam
4.ryy	8r	16.dd\LL
.	.	32e/JK
.	8g#X/L	8e/J
.	8a/J	16cc\LL
.	.	16a\JJ
=52	=52	=52
!	!	!LO:TX:t=P:problem=mixed beam
4.ryy	8r	16.dd\LL
.	.	32e/JK
.	8g#X/L	8e/J
.	8a/J	16cc\LL
.	.	16a\JJ
=53	=53	=53
4.ryy	4d/	16ff\LL
.	.	16ee\
.	.	16dd\
.	.	16cc\
.	8d#X/	16b\
.	.	16a\JJ
=54	=54	=54
4.ryy	8.e/L	16g#X/LL
.	.	16f/
!	!	!LO:TX:t=P:problem=łuk? 6?
.	.	(16e/
.	16d/L	16d/
.	16c/	16c/)
.	16B/JJ	16B/JJ
=55	=55	=55
4.ryy	4A/	8a\L
.	.	(8cc\
.	8r	8b\J)
!	!	!LO:LB:g=original
=56	=56	=56
4.ryy	8a'\L	8cc\L
.	(8cc\	(8ee\
.	8b\J)	8dd\J)
=57	=57	=57
4.ryy	4cc\	8ee'\L
.	.	(8aa\
.	8cc#X\	8gg\J)
=58	=58	=58
.	.	8qqgg/
4.ryy	8dd\L	4ffM\
.	8b\	.
.	8ccn\J	8ee\
=59	=59	=59
!	!	!LO:TX:t=P:problem=mixed beam
4.ryy	8r	16.dd\LL
.	.	32e/JK
.	8g#X/L	8e/J
.	8a/J	16cc\LL
.	.	16a\JJ
=60	=60	=60
!	!	!LO:TX:t=P:problem=mixed beam
4.ryy	8r	16.dd\LL
.	.	32e/JK
.	8g#X/L	8e/J
.	8a/J	16cc\LL
.	.	16a\JJ
=61	=61	=61
.	.	8qgg/
*	*	*Xtuplet
4.ryy	8d/L	24ff\LL
.	.	24ee\
.	.	24dd\JJ
.	8e/	8cc'\L
.	8e/J	8b'\J
=62	=62	=62
.	.	8qqb/
4.ryy	4A/	4a\
.	8r	8r
=63	=63	=63
4.ryy	8r	4cc\
.	8e/L	.
.	8f/J	16.dd\LL
.	.	32b\JJk
=64	=64	=64
4.ryy	8.e/L	8cc\
.	.	4g/
.	16g/L	.
.	16e/	.
.	16c/JJ	.
=65	=65	=65
4.ryy	4cc\	4ee\
.	16.dd\LL	16.ff\LL
.	32b\JJk	32ee\JJk
=66	=66	=66
!	!LO:TX:t=P:problem=mixed beam	!
4.ryy	16cc'\LL	8ee\
.	(<16g/	.
.	16e/)	4cc\
.	(16g/	.
.	16e/	.
.	16d/JJ)	.
=67	=67	=67
4.ryy	(16f/LL	8a\L
.	16g/	.
.	16a/)	8ff\J
.	(16g/	.
!	!	!LO:N:vis=8
.	16a/	16r
.	16f/JJ)	16a/
!	!LO:LB:g=original	!LO:LB:g=original
=68	=68	=68
4.ryy	16c/LL	8g\L
.	16d/	.
.	16e/	8cc\J
.	16d/	.
.	16e/	16r
.	16c/JJ	16gg\
=69	=69	=69
4.ryy	4f/	(32aa\LLL
.	.	32gg\
.	.	32ff\
.	.	32ee\JJJ)
.	.	8dd\L
.	8f#X/	8ccT\J
=70	=70	=70
.	.	8qqcc/
4.ryy	8g/L	4b\
.	8B/	.
.	8B/J	8r
=71	=71	=71
4.ryy	8r	4cc\
.	8e/L	.
.	8f/J	(16.dd\LL
.	.	32b\JJk)
=72	=72	=72
4.ryy	8.e/L	8cc\
.	.	4g/
.	16g/L	.
.	16e/	.
.	16d/JJ	.
=73	=73	=73
!	!	!LO:N:vis=4.
4.ryy	4cc\	4ee\
.	16.dd\LL	(16.ff\LL
.	32b\JJk	32dd\JJk)
=74	=74	=74
!	!LO:TX:t=P:problem=mixed beam	!
4.ryy	16cc\LL	8ee\
.	16g/	.
.	16e/	4cc\
.	16g/	.
.	16e/	.
.	16c/JJ	.
=75	=75	=75
4.ryy	16f'/LL	(8a\L
.	(16g/	.
.	16a/	8ff\J)
.	16g/)	.
.	16a'/	16r
.	16f'/JJ	16a/
=76	=76	=76
4.ryy	(16c/LL	8g\L
.	16d/	.
.	16e/)	8cc\J
.	16d'/	.
.	16e'/	16r
!	!	!LO:N:vis=8
.	16c'/JJ	16a/
=77	=77	=77
4.ryy	8f/L	(>24aa\LL
.	.	24gg\
.	.	24ff\JJ)
.	8g/	8ee\L
.	8G/J	8dd\J
=78	=78	=78
.	.	8qqdd/
4.ryy	8.c/L	4cc\
.	16d/L	.
.	16c/	8r
.	16B/JJ	.
=79	=79	=79
4.ryy	4A/	8a|>\L
.	.	(8cc\
.	8r	8b\J)
=80	=80	=80
4.ryy	8a'\L	8cc|>\L
.	(8cc\	(8ee\
.	8b\J)	8dd\J)
!	!	!LO:LB:g=original
=81	=81	=81
4.ryy	4cc\	8ee\L
.	.	(8aa\
.	8cc#X\	8gg\J)
=82	=82	=82
.	.	8qqgg/
4.ryy	8dd\L	4ff\
.	8b\	.
.	8ccn\J	8ee\
=83	=83	=83
!	!	!LO:TX:t=P:problem=mixed beam
4.ryy	8r	16.dd\LL
.	.	[32e/JK
.	8g#X/L	8e/J]
.	8a/J	(16cc\LL
.	.	16a\JJ)
=84	=84	=84
!	!	!LO:TX:t=P:problem=mixed beam
4.ryy	8r	16.dd\LL
.	.	[32e/JK
.	8g#X/L	8e/J]
.	8a/J	(16cc\LL
.	.	16a\JJ)
!	!LO:LB:g=original	!
=85	=85	=85
4.ryy	4d/	16ff\LL
.	.	16ee\
.	.	16dd\
.	.	16cc\
.	8d#X/	16b\
.	.	16a\JJ
=86	=86	=86
4.ryy	8.e/L	16g#X/LL
.	.	16f/
.	.	16e/
.	16dn/L	16d/
.	16c/	16c/
.	16B/JJ	16B/JJ
=87	=87	=87
4.ryy	4A/	8a'\L
.	.	(8cc\
.	8r	8b\J)
=88	=88	=88
4.ryy	8a'\L	8cc'\L
.	(8cc\	(8ee\
.	8a\J)	8dd\J)
=89	=89	=89
4.ryy	4cc\	8ee'\L
.	.	(8aa\
.	8cc#X\	8gg\J)
=90	=90	=90
.	.	8qqgg/
4.ryy	8dd\L	4ff\
.	8b\	.
.	8ccn\J	8ee\
=91	=91	=91
!	!	!LO:TX:t=P:problem=mixed beam
4.ryy	8r	16.dd\LL
.	.	32e/JK
.	8g#X/L	8e/J
.	8a/J	16cc\LL
.	.	16a\JJ
!	!	!LO:LB:g=original
=92	=92	=92
!	!	!LO:TX:t=P:problem=mixed beam
4.ryy	8r	16.dd\LL
.	.	32e/JK
.	8g#X/L	8e/J
.	8a/J	16cc\LL
.	.	16a\JJ
=93	=93	=93
4.ryy	8d/L	(24ff\LL
.	.	24ee\
.	.	24dd\JJ)
.	8e/	8cc\L
.	8e/J	8b\J
=94	=94	=94
.	.	8qqb/
4.ryy	4A/	4a/
.	8r	8r
=95||	=95||	=95||
*	*k[f#c#g#]	*k[f#c#g#]
4.ryy	8r	4cc#\
.	8a\L	.
.	8a\J	(24a\LL
.	.	24b\
.	.	24cc#\JJ)
=96	=96	=96
.	.	8qqcc#/
4.ryy	8r	4b\
.	8g#/L	.
.	8e/J	24g#/LL
.	.	24a/
.	.	24b/JJ
=97	=97	=97
.	.	8qqb/
4.ryy	8f#/L	8a/L
.	8d#X/	8f#/J
.	8B/J	(24f#/LL
.	.	24g#/
.	.	24a/JJ)
=98	=98	=98
!	!LO:TX:t=P:problem=mixed beam	!
.	.	8qqa/
4.ryy	8e/L	4.g#/
.	16ee\L	.
.	16b\	.
.	16g#\	.
.	16e\JJ	.
=99	=99	=99
4.ryy	4cc#\	8a/L
.	.	8a/
.	(24a\LL	8a/J
.	24b\	.
.	24cc#\JJ)	.
=100	=100	=100
.	8qqcc#/	.
4.ryy	4b\	8r
.	.	8g#/L
.	(24g#\LL	8e/J
.	24a\	.
.	24b\JJ)	.
=101	=101	=101
4.ryy	8.a/L	8f#/L
.	.	8d#X/
.	16f#/Jk	.
.	24f#/LL	8B/J
.	24g#/	.
.	24a/JJ	.
!	!LO:LB:g=original	!
=102	=102	=102
4.ryy	16.g#/LL	16.e/LL
.	32g#/JJk	32b/JJk
.	(24g#/LL	(24b\LL
.	24a/	24cc#\
.	24b/JJ)	24dd\JJ)
.	(24g#/LL	(24b\LL
.	24a/	24cc#\
.	24b/JJ)	24dd\JJ)
!	!	!LO:LB:g=original
=103	=103	=103
.	.	8qqdd/
4.ryy	16.a/LL	4.cc#\
.	32A/K	.
.	16.A/	.
.	32B/K	.
.	16.c#/	.
.	32d/JJk	.
=104	=104	=104
4.ryy	16.e/LL	16.b\LL
.	32g#/JJk	32b\JJk
.	24g#/LL	(24b\LL
.	24a/	24cc#\
.	24b/JJ	24dd\JJ)
.	24g#/LL	(24b\LL
.	24a/	24cc#\
.	24b/JJ	24dd\JJ)
=105	=105	=105
.	.	8qqdd/
4.ryy	16.a/LL	4.cc#\
.	32A/K	.
.	16.A/	.
.	32B/K	.
.	16.c#/	.
.	32d/JJk	.
=106	=106	=106
*	*	*^
.	.	8qqcc#/	.
4.ryy	8e/L	4b/	4e\
.	16.e/L	.	.
.	32d/K	.	.
.	16.c#/	8r	8ryy
.	32B/JJk	.	.
*	*	*v	*v
=107	=107	=107
4.ryy	16A/LL	8aa\L
.	16a/	.
.	16cc#/	8ee\
.	16a/	.
.	16b/	8cc#\J
.	16g#/JJ	.
!	!LO:LB:g=original	!
=108	=108	=108
.	.	8qqdd/
4.ryy	4a\	8.cc#\L
.	.	(16ee\L
.	8r	16aa\
.	.	16ccc#\JJ)
=109	=109	=109
!	!LO:TX:t=P:problem=mixed beam	!
4.ryy	8dd\L	16bb\LL
.	.	16ddd\JJ
.	.	8qqaa/
.	8ee\	4gg#\
.	8e/J	.
=110	=110	=110
4.ryy	4a/	16aa\LL
.	.	16ee\
.	.	16dd\
.	.	16cc#\
.	8r	16b\
.	.	16a\JJ
=111	=111	=111
4.ryy	8aa|>\L	16A/LL
.	.	16a/
.	(8ee\	16cc#/
.	.	16a/
.	8dd\J)	16b/
.	.	16e/JJ
=112	=112	=112
!	!LO:N:vis=8	!
.	.	8qqg#/
4.ryy	(8.cc#\L	4a/
.	16ee\L	.
.	16aa\	8r
.	16ccc#\JJ)	.
=113	=113	=113
!	!	!LO:TX:t=P:problem=mixed beam
4.ryy	16bb\LL	8dd\L
.	16ddd\JJ	.
.	8qqaa/	.
.	4gg#m\	8ee\
.	.	8e/J
=114	=114	=114
4.ryy	16aa|>\LL	8a\L
.	(16a\	.
.	16cc#\	16r
.	16ee\	16ee\Jk
.	16cc#\	8eeM\
.	16a\JJ)	.
!	!	!LO:LB:g=original
=115	=115	=115
!	!LO:TX:t=P:problem=mixed beam	!
4.ryy	(16dd\LL	8ff#\
.	16cc#\	.
.	16dd\)	16r
.	16a/	(16aa\LL
.	16f#'/	16gg#\
.	16d'/JJ	16ff#\JJ)
=116	=116	=116
4.ryy	8a\L	16ee\LL
.	.	16a\
.	16r	16cc#\
.	16ee\Jk	16ee\
!	!LO:N:vis=4	!
.	8eeM\	16cc#\
.	.	16a\JJ
=117	=117	=117
4.ryy	8ff#\	16dd/LL
.	.	16cc#/
.	8r	16dd/
.	.	16a/
!	!LO:N:vis=16.	!
.	8qqbb/	.
.	16aa\LL	16f#/
.	(32gg#\L	16d/JJ
.	32ff#\JJJ)	.
=118	=118	=118
!	!LO:TX:t=P:problem=mixed beam	!
4.ryy	16.ee\LL	8a/
!	!LO:N:vis=32.	!
.	32A/K	.
!	!LO:N:vis=16	!
.	16.c#/	16r
.	.	16e/KL
!	!LO:N:vis=16.	!
.	32e/K	.
!	!LO:N:vis=32	!
.	16.c#/	8e/J
.	32A/JJk	.
=119	=119	=119
4.ryy	8d/L	16f#/LL
.	.	16dd/
.	8e/	16cc#/
.	.	16a/
.	8e/J	16b/
.	.	16g#/JJ
=120	=120	=120
4.ryy	8A/	16a/LL
.	.	16A/
.	16r	16c#/
.	16e/KL	16e/
.	8e/J	16c#/
.	.	16A/JJ
=121	=121	=121
4.ryy	(16f#\LL	8d/L
.	16dd\)	.
.	(16cc#\	8e/
.	16a\)	.
.	(16b\	8e/J
.	16g#\JJ)	.
=122	=122	=122
!	!	!c
4.ryy	8a\L	8A/L
.	(16cc#\L	(16ee\L
.	16a\)	16cc#\)
.	(16b\	(16dd\
.	16g#\JJ)	16b\JJ)
=123	=123	=123
4.ryy	8a\L	8cc#\L
.	16cc#\L	(16ee\L
.	16a\	16cc#\)
.	16b\	(16dd\
.	16g#\JJ	16b\JJ)
=124	=124	=124
4.ryy	16A/LL	8c#/L 8e 8a
.	16c#/	.
.	16e/	8c#/ 8e 8a
.	16a/	.
.	16e/	8c#/J 8e 8a
.	16c#/JJ	.
!	!LO:LB:g=original	!
=125	=125	=125
4.ryy	16A/LL	8c#/L 8e 8a
.	16c#/	.
.	16e/	8c#/ 8e 8a
.	16a/	.
.	16e/	8c#/J 8e 8a
.	16c#/JJ	.
=126	=126	=126
4.ryy	4A/ 4e 4a	4a/
.	8r	8r
==	==;	==;
*-	*-	*-
!!!system-decoration: [(s1,s2,s3)]
!!!RDF**kern: | = vertical stroke
!!!RDF**kern: < = below
!!!RDF**kern: > = above
!!!ENC: Marcin Jachim
!!!END: 2021-05-27
!!!ENC: Marta Chmielewska
!!!END: 2021-10-29
